!!!OTL: 1393. Der Deserteur.
!!!ARE: Europa, Mitteleuropa, Deutschland, Hessen, Darmstadt, Dreieichenstein
!!!SCT: E1393
!!!TXL: @@DE
!!!YEM: Copyright 1995, estate of Helmut Schaffrath.
**kern	**text
*ICvox	*
*M4/4	*
*met(c)	*
*k[b-]	*
*F:	*
!LO:TX:a:t=	!
!LO:TX:a:t=Ldhort 172. Volksmel. aus dem Heſſen-Darmſtädtiſchen. (Dreieichenſtein, Offenthal.)	!
{4c	Ʒu
=1	=1
4.f	Straß-
8c	-burg
4f	auf
4g	der
=2	=2
2a	Schanʒ,
4r}	.
{4f	da
=3	=3
4.a	fing
8a	mein
4g	Un-
4g	-glück
=4	=4
2f	an;
4r}	.
{8fL	da
8gJ	.
=5	=5
4a	wollt_ich
4a	den_Fran-
4a	-ʒoſen
8g	de-
8a	-ſer-
=6	=6
2b-	-tier'n,
4r}	.
{8b-L	und
8aJ	.
=7	=7
8g	wollt
8g	es
8g	bei
8g	den
4g	Preu-
8f	-ßen
8g	pro-
=8	=8
4a}	-bier'n,
{8ccL	ei
8b-J	das
4a	gieng
4g	nicht
=9	=9
(8fL	an,
8a	.
8g	.
8b-J	.
4a)}	.
{8ccL	ei
8b-J	das
=10	=10
4a	gieng
4g	nicht
4f;}	an.
==	==
!!!AGN: Staende -, Soldaten - Lied, Deserteur
!!!ONB: ESAC (Essen Associative Code) Database: ERK3
!!!AMT: simple quadruple
!!!AIN: vox
!!!EED: Helmut Schaffrath
!!!EEV: 1.0
!!!GTL: Staendelieder (Berufslieder). 1. Soldaten- und Kriegslieder. Soldatenlieder seit dem 30jaehr. Kriege.
!!!URL-scan: https://rosdok.uni-rostock.de/mcrviewer/recordIdentifier/rosdok_ppn745177999/iview2/phys_0265.iview2?x=-329.78730854014907&y=198.99089544801973&scale=0.5870222003877487&rotation=0&layout=singlePageLayout
!!!ENC: Anna Maria Matuszewska
!!!EEV: 2024/12/30
*-	*-
